src/assets/icons/circle-dash.svg

<svg widh="100%" height="100%" viewBox="0 0 24 24" fill="current"
  xmlns="http://www.w3.org/2000/svg">
  <path fill-rule="evenodd" clip-rule="evenodd" d="M12 3C11.4849 3 10.9807 3.04317 10.4905 3.12588C9.94591 3.21777 9.42994 2.85078 9.33805 2.3062C9.24616 1.76161 9.61315 1.24564 10.1577 1.15375C10.7574 1.05257 11.3729 1 12 1C12.6271 1 13.2426 1.05257 13.8423 1.15376C14.3869 1.24565 14.7538 1.76161 14.6619 2.3062C14.5701 2.85079 14.0541 3.21777 13.5095 3.12588C13.0193 3.04317 12.5151 3 12 3ZM7.02797 3.26433C7.34794 3.71448 7.24241 4.33879 6.79225 4.65876C5.96725 5.24518 5.24518 5.96725 4.65876 6.79225C4.33879 7.24241 3.71448 7.34794 3.26433 7.02797C2.81418 6.70799 2.70864 6.08369 3.02862 5.63353C3.74469 4.62612 4.62612 3.74469 5.63353 3.02862C6.08369 2.70864 6.70799 2.81418 7.02797 3.26433ZM16.972 3.26434C17.292 2.81419 17.9163 2.70865 18.3665 3.02863C19.3739 3.7447 20.2553 4.62613 20.9714 5.63354C21.2913 6.08369 21.1858 6.708 20.7357 7.02797C20.2855 7.34795 19.6612 7.24242 19.3412 6.79226C18.7548 5.96726 18.0327 5.24519 17.2077 4.65877C16.7576 4.3388 16.6521 3.71449 16.972 3.26434ZM2.3062 9.33805C2.85078 9.42994 3.21777 9.94591 3.12588 10.4905C3.04317 10.9807 3 11.4849 3 12C3 12.5151 3.04317 13.0193 3.12588 13.5095C3.21777 14.0541 2.85079 14.5701 2.3062 14.6619C1.76161 14.7538 1.24565 14.3869 1.15376 13.8423C1.05257 13.2426 1 12.6271 1 12C1 11.3729 1.05257 10.7574 1.15375 10.1577C1.24564 9.61315 1.76161 9.24616 2.3062 9.33805ZM21.6938 9.33805C22.2384 9.24616 22.7544 9.61315 22.8462 10.1577C22.9474 10.7574 23 11.3729 23 12C23 12.6271 22.9474 13.2426 22.8462 13.8423C22.7544 14.3869 22.2384 14.7538 21.6938 14.6619C21.1492 14.5701 20.7822 14.0541 20.8741 13.5095C20.9568 13.0193 21 12.5151 21 12C21 11.4849 20.9568 10.9807 20.8741 10.4905C20.7822 9.94591 21.1492 9.42994 21.6938 9.33805ZM20.7357 16.972C21.1858 17.292 21.2913 17.9163 20.9714 18.3665C20.2553 19.3739 19.3739 20.2553 18.3665 20.9714C17.9163 21.2913 17.292 21.1858 16.972 20.7357C16.652 20.2855 16.7576 19.6612 17.2077 19.3412C18.0327 18.7548 18.7548 18.0327 19.3412 17.2077C19.6612 16.7576 20.2855 16.652 20.7357 16.972ZM3.26434 16.972C3.71449 16.6521 4.3388 16.7576 4.65877 17.2077C5.24519 18.0327 5.96726 18.7548 6.79226 19.3412C7.24241 19.6612 7.34794 20.2855 7.02797 20.7357C6.708 21.1858 6.08369 21.2913 5.63354 20.9714C4.62613 20.2553 3.7447 19.3739 3.02863 18.3665C2.70865 17.9163 2.81419 17.292 3.26434 16.972ZM14.6619 21.6938C14.7538 22.2384 14.3869 22.7544 13.8423 22.8462C13.2426 22.9474 12.6271 23 12 23C11.3729 23 10.7574 22.9474 10.1577 22.8462C9.61315 22.7544 9.24616 22.2384 9.33805 21.6938C9.42994 21.1492 9.94591 20.7822 10.4905 20.8741C10.9807 20.9568 11.4849 21 12 21C12.5151 21 13.0193 20.9568 13.5095 20.8741C14.0541 20.7822 14.5701 21.1492 14.6619 21.6938Z"/>
</svg>

<svg xmlns="http://www.w3.org/2000/svg" fill="currentColor" viewBox="0 0 24 24">
  <path fill-rule="evenodd" d="M12 3c-.515 0-1.02.043-1.51.126a1 1 0 0 1-.332-1.972 11.068 11.068 0 0 1 3.684 0 1 1 0 1 1-.333 1.972A9.067 9.067 0 0 0 12 3Zm-4.972.264a1 1 0 0 1-.236 1.395A9.057 9.057 0 0 0 4.66 6.792a1 1 0 1 1-1.63-1.158 11.057 11.057 0 0 1 2.605-2.605 1 1 0 0 1 1.394.235Zm9.944 0a1 1 0 0 1 1.394-.235 11.057 11.057 0 0 1 2.605 2.605 1 1 0 0 1-1.63 1.158 9.057 9.057 0 0 0-2.133-2.133 1 1 0 0 1-.236-1.395ZM2.306 9.338a1 1 0 0 1 .82 1.153 9.067 9.067 0 0 0 0 3.018 1 1 0 1 1-1.972.333 11.067 11.067 0 0 1 0-3.684 1 1 0 0 1 1.152-.82Zm19.388 0a1 1 0 0 1 1.152.82 11.065 11.065 0 0 1 0 3.684 1 1 0 1 1-1.972-.333 9.068 9.068 0 0 0 0-3.018 1 1 0 0 1 .82-1.153Zm-.958 7.634a1 1 0 0 1 .235 1.394 11.058 11.058 0 0 1-2.605 2.605 1 1 0 0 1-1.158-1.63 9.056 9.056 0 0 0 2.133-2.133 1 1 0 0 1 1.395-.236Zm-17.472 0a1 1 0 0 1 1.395.236 9.057 9.057 0 0 0 2.133 2.133 1 1 0 0 1-1.158 1.63 11.057 11.057 0 0 1-2.605-2.605 1 1 0 0 1 .235-1.394Zm11.398 4.722a1 1 0 0 1-.82 1.152 11.065 11.065 0 0 1-3.684 0 1 1 0 1 1 .333-1.972 9.068 9.068 0 0 0 3.018 0 1 1 0 0 1 1.153.82Z" clip-rule="evenodd"/>
</svg>
